assets/img/icons/skills/mongo.db.svg

<svg width="160" height="45" viewBox="0 0 160 45" fill="none" xmlns="http://www.w3.org/2000/svg">
<path fill-rule="evenodd" clip-rule="evenodd" d="M148.973 18.5733C148.829 18.6018 148.685 18.9147 148.685 19.0853C148.656 20.2229 148.627 23.2381 148.627 25.2858C148.627 25.3428 148.713 25.4564 148.8 25.4564C149.232 25.4849 150.271 25.5134 151.165 25.5134C152.405 25.5134 153.126 25.3428 153.529 25.1722C154.567 24.6602 155.058 23.5508 155.058 22.3277C155.058 19.5688 153.097 18.5163 150.184 18.5163C149.982 18.4881 149.406 18.4881 148.973 18.5733ZM156.413 31.2873C156.413 28.4716 154.308 26.907 150.501 26.907C150.328 26.907 149.117 26.8786 148.829 26.9355C148.742 26.964 148.627 27.0209 148.627 27.1064C148.627 29.1257 148.598 32.3398 148.685 33.5911C148.742 34.1316 149.146 34.8996 149.636 35.1272C150.155 35.4117 151.338 35.4683 152.145 35.4683C154.423 35.4683 156.413 34.217 156.413 31.2873ZM143.09 17.009C143.378 17.009 144.243 17.0942 146.464 17.0942C148.569 17.0942 150.242 17.0375 152.289 17.0375C154.798 17.0375 158.259 17.9192 158.259 21.6166C158.259 23.4371 156.961 24.8877 155.259 25.5988C155.173 25.6273 155.173 25.684 155.259 25.7124C157.682 26.3099 159.816 27.789 159.816 30.5763C159.816 33.3069 158.086 35.0417 155.577 36.1227C154.048 36.7768 152.145 37.0044 150.213 37.0044C148.742 37.0044 144.791 36.8338 142.6 36.8907C142.369 36.8053 142.802 35.7813 143.003 35.6107C143.523 35.5822 143.926 35.5538 144.474 35.3832C145.253 35.1841 145.339 34.9566 145.455 33.7905C145.512 32.7949 145.512 29.2678 145.512 26.7649C145.512 23.3232 145.541 20.991 145.512 19.8533C145.484 18.9717 145.166 18.6872 144.532 18.5163C144.042 18.4312 143.234 18.3173 142.571 18.2321C142.427 18.0897 142.917 17.1227 143.09 17.009ZM126.45 34.7006C127.143 35.2408 128.498 35.4683 129.709 35.4683C131.266 35.4683 132.824 35.1841 134.323 33.8471C135.852 32.482 136.919 30.3772 136.919 27.0209C136.919 23.8068 135.679 21.19 133.141 19.6542C131.699 18.7723 129.853 18.4027 127.719 18.4027C127.085 18.4027 126.479 18.4312 126.104 18.6018C126.018 18.6587 125.816 18.9147 125.816 19.0568C125.758 19.6258 125.758 24.0058 125.758 26.5659C125.758 29.2111 125.758 32.9085 125.816 33.3351C125.816 33.762 126.018 34.4161 126.45 34.7006ZM119.904 17.009C120.452 17.009 122.557 17.0942 123.567 17.0942C125.383 17.0942 126.681 17.009 130.113 17.009C132.997 17.009 135.419 17.7771 137.149 19.2274C139.254 21.0194 140.35 23.4941 140.35 26.5089C140.35 30.8038 138.36 33.2784 136.371 34.7006C134.381 36.1512 131.785 37.0044 128.094 37.0044C126.133 37.0044 122.759 36.9474 119.962 36.9189H119.933C119.789 36.6632 120.164 35.6677 120.394 35.6392C121.144 35.5538 121.346 35.5253 121.721 35.3832C122.326 35.1556 122.442 34.8427 122.529 33.7905C122.615 31.8278 122.586 29.4671 122.586 26.7934C122.586 24.8877 122.615 21.1615 122.557 19.9669C122.471 18.9717 122.038 18.7157 121.173 18.5448C120.74 18.4596 120.164 18.3457 119.356 18.2606C119.241 18.0613 119.76 17.1796 119.904 17.009Z" fill="#8E714E"/>
<path fill-rule="evenodd" clip-rule="evenodd" d="M85.0103 35.8097C84.2894 35.7243 83.7703 35.6107 83.1357 35.3262C83.0493 35.2692 82.905 34.985 82.905 34.8711C82.8472 33.8756 82.8472 31.0313 82.8472 29.1256C82.8472 27.5896 82.5879 26.2529 81.9245 25.3143C81.1458 24.2333 80.0212 23.6077 78.5793 23.6077C77.3104 23.6077 75.6089 24.4611 74.1959 25.6557C74.167 25.6839 73.9363 25.8832 73.9652 25.5703C73.9652 25.2573 74.0229 24.6317 74.0518 24.2051C74.0807 23.8067 73.85 23.6077 73.85 23.6077C72.927 24.0627 70.3316 24.6602 69.38 24.7453C68.6879 24.8877 68.515 25.5418 69.2359 25.7693H69.2648C70.0432 25.9969 70.5623 26.2529 70.966 26.5089C71.2544 26.7364 71.2255 27.0494 71.2255 27.3054C71.2544 29.4386 71.2544 32.7095 71.168 34.5015C71.1392 35.2126 70.9373 35.4683 70.4182 35.5822L70.4757 35.5537C70.0721 35.6392 69.7548 35.7243 69.2645 35.7813C69.0915 35.9518 69.0915 36.8622 69.2645 37.0613C69.5818 37.0613 71.2544 36.9759 72.6388 36.9759C74.5421 36.9759 75.5226 37.0613 76.0128 37.0613C76.2146 36.8338 76.2724 35.9803 76.1569 35.7813C75.6089 35.7528 75.2053 35.6961 74.8305 35.5822C74.3114 35.4683 74.167 35.2126 74.1382 34.6151C74.0807 33.1076 74.0807 29.9221 74.0807 27.7604C74.0807 27.163 74.2536 26.8785 74.4266 26.7079C75.0898 26.1393 76.1569 25.7409 77.1085 25.7409C78.0313 25.7409 78.637 26.0254 79.0984 26.3953C79.7328 26.907 79.9346 27.6465 80.0212 28.187C80.1653 29.4101 80.1078 31.8278 80.1078 33.9325C80.1078 35.0702 80.0212 35.3547 79.5887 35.4968C79.3869 35.5822 78.8677 35.6961 78.262 35.7528C78.0602 35.9518 78.1179 36.8338 78.262 37.0328C79.0984 37.0328 80.0789 36.9474 81.5208 36.9474C83.3086 36.9474 84.4623 37.0328 84.9237 37.0328C85.0678 36.8622 85.1255 36.0373 85.0101 35.8097H85.0103ZM92.9985 24.9446C91.47 24.9446 90.5183 26.1108 90.5183 27.931C90.5183 29.7798 91.3545 31.913 93.7194 31.913C94.123 31.913 94.8729 31.7424 95.2188 31.3443C95.7668 30.8323 96.1418 29.8082 96.1418 28.7275C96.1418 26.3668 94.9592 24.9446 92.9985 24.9446ZM92.7964 37.5164C92.2198 37.5164 91.8159 37.6869 91.5566 37.8293C90.3451 38.5971 89.7974 39.3366 89.7974 40.2185C89.7974 41.0432 90.1144 41.6973 90.8068 42.2663C91.6429 42.9774 92.7964 43.3188 94.2671 43.3188C97.2086 43.3188 98.5064 41.7543 98.5064 40.2185C98.5064 39.1375 97.9585 38.4265 96.8339 38.0284C96.0263 37.6869 94.5556 37.5164 92.7964 37.5164ZM92.9985 44.9115C91.2393 44.9115 89.9703 44.5416 88.8746 43.7169C87.8075 42.9204 87.3461 41.7258 87.3461 40.9011C87.3461 40.6736 87.4039 40.0477 87.923 39.479C88.24 39.1375 88.9321 38.4834 90.5761 37.3742C90.6335 37.3458 90.6624 37.3173 90.6624 37.2603C90.6624 37.2034 90.6047 37.1464 90.5472 37.1182C89.1917 36.6062 88.788 35.7813 88.6725 35.3262V35.2692C88.6439 35.0987 88.5862 34.9281 88.8457 34.7572C89.0476 34.6151 89.336 34.4445 89.653 34.2455C90.1433 33.961 90.6624 33.6481 90.9797 33.392C91.0375 33.3351 91.0374 33.2784 91.0374 33.2215C91.0374 33.1645 90.9797 33.1076 90.922 33.0794C88.9035 32.425 87.8941 30.9459 87.8941 28.7275C87.8941 27.2769 88.5573 25.9684 89.7396 25.1437C90.5472 24.5178 92.5657 23.75 93.8924 23.75H93.979C95.3342 23.7782 96.0841 24.0627 97.1509 24.4326C97.7278 24.6317 98.2758 24.7168 99.0256 24.7168C100.15 24.7168 100.64 24.3757 101.044 23.9776C101.073 24.0343 101.131 24.1766 101.16 24.5463C101.188 24.9162 101.073 25.4564 100.784 25.8548C100.554 26.1675 100.035 26.3953 99.5158 26.3953H99.3715C98.8524 26.3383 98.6217 26.2814 98.6217 26.2814L98.5064 26.3383C98.4776 26.3953 98.5064 26.4519 98.5353 26.5374L98.5642 26.5943C98.6217 26.8503 98.7371 27.6181 98.7371 27.8174C98.7371 30.1497 97.7855 31.1734 96.7761 31.9414C95.7956 32.6525 94.671 33.1076 93.4021 33.2215C93.3732 33.2215 93.258 33.2215 92.9985 33.2499C92.8541 33.2499 92.6523 33.2784 92.6234 33.2784H92.5946C92.3639 33.3351 91.7873 33.6196 91.7873 34.1031C91.7873 34.5297 92.0468 35.0417 93.2866 35.1271C93.5462 35.1556 93.8057 35.1556 94.0942 35.1841C95.7379 35.2977 97.7855 35.4401 98.7371 35.7528C100.064 36.2363 100.9 37.4025 100.9 38.7964C100.9 40.9011 99.3715 42.8637 96.8339 44.0866C95.5938 44.627 94.3537 44.9115 92.9985 44.9115ZM109.436 25.0868C108.83 25.0868 108.282 25.2289 107.879 25.5133C106.754 26.1959 106.177 27.5614 106.177 29.5522C106.177 33.2784 108.081 35.8952 110.791 35.8952C111.599 35.8952 112.233 35.6676 112.781 35.2126C113.617 34.5297 114.05 33.1645 114.05 31.2588C114.05 27.5614 112.176 25.0868 109.436 25.0868ZM109.955 37.2603C105.053 37.2603 103.294 33.705 103.294 30.3772C103.294 28.0449 104.245 26.2529 106.148 24.9729C107.504 24.1482 109.119 23.6931 110.561 23.6931C114.309 23.6931 116.934 26.3383 116.934 30.1497C116.934 32.7379 115.896 34.7857 113.906 36.0373C112.954 36.6629 111.311 37.2603 109.955 37.2603H109.955ZM58.5658 25.0868C57.9601 25.0868 57.4124 25.2289 57.0084 25.5133C55.8839 26.1959 55.307 27.5614 55.307 29.5522C55.307 33.2784 57.2103 35.8952 59.9211 35.8952C60.7286 35.8952 61.363 35.6676 61.911 35.2126C62.7471 34.5297 63.1799 33.1645 63.1799 31.2588C63.1799 27.5614 61.3341 25.0868 58.5658 25.0868ZM59.0849 37.2603C54.1824 37.2603 52.4232 33.705 52.4232 30.3772C52.4232 28.0449 53.3749 26.2529 55.2781 24.9729C56.6337 24.1482 58.2485 23.6931 59.6904 23.6931C63.4395 23.6931 66.0637 26.3383 66.0637 30.1497C66.0637 32.7379 65.0254 34.7857 63.0356 36.0373C62.1128 36.6629 60.4691 37.2603 59.0849 37.2603ZM26.1231 36.9759C26.0653 36.8907 26.0076 36.6347 26.0364 36.3217C26.0364 36.0942 26.0942 35.9518 26.1231 35.8952C26.7285 35.8097 27.0458 35.7243 27.3917 35.6392C27.9686 35.4968 28.1993 35.1841 28.2281 34.473C28.3148 32.7664 28.3148 29.5237 28.2859 27.2769V27.22C28.2859 26.964 28.2859 26.651 27.9686 26.4235C27.5072 26.1393 26.9592 25.8832 26.2383 25.6839C25.9787 25.5988 25.8058 25.4564 25.8346 25.2858C25.8346 25.1152 26.0076 24.9162 26.3826 24.8592C27.3343 24.7738 29.8141 24.1766 30.7946 23.75C30.8524 23.8067 30.939 23.9776 30.939 24.2051L30.9101 24.5178C30.8812 24.8307 30.8524 25.2007 30.8524 25.5703C30.8524 25.6839 30.9678 25.7693 31.0831 25.7693C31.1408 25.7693 31.1985 25.7409 31.2563 25.7124C33.1018 24.2903 34.7744 23.7782 35.6394 23.7782C37.0527 23.7782 38.1484 24.4326 38.9848 25.7978C39.0423 25.8832 39.1 25.9115 39.1867 25.9115C39.2444 25.9115 39.3307 25.8832 39.3596 25.8263C41.0611 24.5463 42.7625 23.7782 43.8871 23.7782C46.5691 23.7782 48.1553 25.7409 48.1553 29.0687C48.1553 30.0073 48.1553 31.2304 48.1264 32.3398C48.1264 33.3351 48.0976 34.2455 48.0976 34.8996C48.0976 35.0417 48.2994 35.4968 48.6167 35.5822C49.0203 35.7813 49.5683 35.8667 50.2893 35.9803H50.3181C50.3759 36.1794 50.2604 36.9189 50.1452 37.0613C49.972 37.0613 49.7124 37.0613 49.4242 37.0328C48.8762 37.0043 48.0976 36.9759 47.2325 36.9759C45.4445 36.9759 44.5217 37.0043 43.6275 37.0613C43.5701 36.8338 43.5412 36.1512 43.6275 35.9803C44.1467 35.8952 44.4062 35.8097 44.7235 35.7243C45.3004 35.5537 45.4445 35.2977 45.4733 34.5582C45.4733 34.018 45.5885 29.4101 45.4156 28.3007C45.2426 27.163 44.3774 25.8263 42.4741 25.8263C41.7531 25.8263 40.6285 26.1108 39.5326 26.9355C39.4751 26.9924 39.4174 27.1345 39.4174 27.22V27.2484C39.5326 27.8456 39.5326 28.5285 39.5326 29.5807V31.4294C39.5326 32.7095 39.5037 33.9041 39.5326 34.8142C39.5326 35.4401 39.9076 35.5822 40.2249 35.6961C40.3979 35.7243 40.5131 35.7528 40.6574 35.7813C40.917 35.8382 41.1765 35.8952 41.5802 35.9803C41.6379 36.0942 41.6379 36.4639 41.5513 36.7768C41.5224 36.9474 41.4647 37.0328 41.4361 37.0613C40.4556 37.0328 39.4462 37.0043 37.9755 37.0043C37.543 37.0043 36.7931 37.0328 36.1585 37.0328C35.6394 37.0328 35.1492 37.0613 34.861 37.0613C34.8321 37.0043 34.7744 36.8053 34.7744 36.4923C34.7744 36.2363 34.8321 36.0373 34.8899 35.9803C35.0339 35.9518 35.1492 35.9236 35.2935 35.9236C35.6394 35.8667 35.9278 35.8097 36.2163 35.7528C36.7065 35.6107 36.8795 35.3547 36.9083 34.729C36.995 33.3069 37.0813 29.2395 36.8795 28.2155C36.5336 26.5658 35.5819 25.7409 34.0534 25.7409C33.1595 25.7409 32.0347 26.1675 31.1119 26.8503C30.9678 26.964 30.8524 27.2484 30.8524 27.5044V29.1826C30.8524 31.2304 30.8524 33.7904 30.8812 34.8996C30.9101 35.2408 31.0253 35.6392 31.6888 35.7813C31.8329 35.8097 32.0636 35.8667 32.352 35.8952L32.8711 35.9803C32.9289 36.1512 32.9 36.8338 32.7845 37.0613C32.4961 37.0613 32.1502 37.0328 31.7463 37.0328C31.1408 37.0043 30.3621 36.9759 29.4971 36.9759C28.4877 36.9759 27.7668 37.0043 27.1899 37.0328C26.7863 36.9759 26.469 36.9759 26.1231 36.9759Z" fill="#442D22"/>
<path fill-rule="evenodd" clip-rule="evenodd" d="M10.9541 43.8024L9.77175 43.404C9.77175 43.404 9.9161 37.4594 7.75327 37.0329C6.31138 35.3832 7.98396 -32.9369 13.1746 36.8053C13.1746 36.8053 11.3869 37.687 11.0696 39.1945C10.7234 40.6736 10.9541 43.8024 10.9541 43.8024Z" fill="white"/>
<path fill-rule="evenodd" clip-rule="evenodd" d="M10.9541 43.8024L9.77175 43.404C9.77175 43.404 9.9161 37.4594 7.75327 37.0329C6.31138 35.3832 7.98396 -32.9369 13.1746 36.8053C13.1746 36.8053 11.3869 37.687 11.0696 39.1945C10.7234 40.6736 10.9541 43.8024 10.9541 43.8024Z" fill="#A6A385"/>
<path fill-rule="evenodd" clip-rule="evenodd" d="M11.5887 38.0567C11.5887 38.0567 21.9415 31.3441 19.5191 17.3785C17.1833 7.22446 11.6751 3.89664 11.0696 2.61661C10.4064 1.70649 9.77179 0.11377 9.77179 0.11377L10.2046 28.3575C10.2046 28.3859 9.31041 37.0042 11.5887 38.0567Z" fill="white"/>
<path fill-rule="evenodd" clip-rule="evenodd" d="M11.5887 38.0567C11.5887 38.0567 21.9415 31.3441 19.5191 17.3785C17.1833 7.22446 11.6751 3.89664 11.0696 2.61661C10.4064 1.70649 9.77179 0.11377 9.77179 0.11377L10.2046 28.3575C10.2046 28.3859 9.31041 37.0042 11.5887 38.0567Z" fill="#499D4A"/>
<path fill-rule="evenodd" clip-rule="evenodd" d="M9.16628 38.4264C9.16628 38.4264 -0.552162 31.8844 0.0247011 20.3652C0.572424 8.84578 7.43596 3.1857 8.76237 2.16168C9.62767 1.25155 9.65654 0.910125 9.71428 0C10.3197 1.28003 10.2045 19.1422 10.2909 21.2469C10.5504 29.3531 9.82949 36.8907 9.16628 38.4264Z" fill="white"/>
<path fill-rule="evenodd" clip-rule="evenodd" d="M9.16628 38.4264C9.16628 38.4264 -0.552162 31.8844 0.0247011 20.3652C0.572424 8.84578 7.43596 3.1857 8.76237 2.16168C9.62767 1.25155 9.65654 0.910125 9.71428 0C10.3197 1.28003 10.2045 19.1422 10.2909 21.2469C10.5504 29.3531 9.82949 36.8907 9.16628 38.4264Z" fill="#58AA50"/>
</svg>

<svg width="160" height="45" fill="none" xmlns="http://www.w3.org/2000/svg"><path fill-rule="evenodd" clip-rule="evenodd" d="M148.973 18.573c-.144.029-.288.342-.288.512a337.539 337.539 0 0 0-.058 6.2c0 .058.086.171.173.171.432.029 1.471.057 2.365.057 1.24 0 1.961-.17 2.364-.34 1.038-.513 1.529-1.622 1.529-2.845 0-2.76-1.961-3.812-4.874-3.812a4.702 4.702 0 0 0-1.211.057Zm7.44 12.714c0-2.815-2.105-4.38-5.912-4.38-.173 0-1.384-.028-1.672.029-.087.028-.202.085-.202.17 0 2.02-.029 5.234.058 6.485.057.54.461 1.309.951 1.536.519.285 1.702.341 2.509.341 2.278 0 4.268-1.251 4.268-4.18ZM143.09 17.01c.288 0 1.153.085 3.374.085 2.105 0 3.778-.056 5.825-.056 2.509 0 5.97.881 5.97 4.579 0 1.82-1.298 3.27-3 3.982-.086.028-.086.085 0 .113 2.423.598 4.557 2.077 4.557 4.864 0 2.73-1.73 4.466-4.239 5.547-1.529.654-3.432.881-5.364.881-1.471 0-5.422-.17-7.613-.113-.231-.086.202-1.11.403-1.28.52-.029.923-.057 1.471-.228.779-.199.865-.426.981-1.593.057-.995.057-4.522.057-7.025 0-3.442.029-5.774 0-6.912-.028-.881-.346-1.166-.98-1.337a52.739 52.739 0 0 0-1.961-.284c-.144-.142.346-1.11.519-1.223Zm-16.64 17.692c.693.54 2.048.767 3.259.767 1.557 0 3.115-.284 4.614-1.62 1.529-1.366 2.596-3.47 2.596-6.827 0-3.214-1.24-5.831-3.778-7.367-1.442-.882-3.288-1.251-5.422-1.251-.634 0-1.24.028-1.615.199-.086.057-.288.313-.288.455-.058.569-.058 4.949-.058 7.509 0 2.645 0 6.342.058 6.77 0 .426.202 1.08.634 1.365Zm-6.546-17.692c.548 0 2.653.085 3.663.085 1.816 0 3.114-.085 6.546-.085 2.884 0 5.306.768 7.036 2.218 2.105 1.792 3.201 4.267 3.201 7.282 0 4.295-1.99 6.77-3.979 8.192-1.99 1.45-4.586 2.303-8.277 2.303-1.961 0-5.335-.057-8.132-.085h-.029c-.144-.256.231-1.251.461-1.28.75-.085.952-.114 1.327-.256.605-.227.721-.54.808-1.593.086-1.962.057-4.323.057-6.997 0-1.905.029-5.631-.029-6.826-.086-.995-.519-1.251-1.384-1.422-.433-.085-1.009-.2-1.817-.284-.115-.2.404-1.081.548-1.252Z" fill="#8E714E"/><path fill-rule="evenodd" clip-rule="evenodd" d="M85.01 35.81c-.72-.086-1.24-.2-1.874-.484-.087-.057-.231-.341-.231-.455-.058-.995-.058-3.84-.058-5.745 0-1.536-.26-2.873-.922-3.812-.78-1.08-1.904-1.706-3.346-1.706-1.269 0-2.97.853-4.383 2.048-.029.028-.26.227-.23-.086 0-.313.057-.938.086-1.365.029-.398-.202-.597-.202-.597-.923.455-3.518 1.052-4.47 1.137-.692.143-.865.797-.144 1.024h.029c.778.228 1.297.484 1.701.74.288.227.26.54.26.796.028 2.134.028 5.404-.058 7.197-.029.71-.23.966-.75 1.08l.058-.028c-.404.085-.721.17-1.212.227-.172.17-.172 1.081 0 1.28.318 0 1.99-.085 3.375-.085 1.903 0 2.884.085 3.374.085.202-.227.26-1.08.144-1.28-.548-.028-.952-.085-1.326-.199-.52-.114-.664-.37-.693-.967-.057-1.507-.057-4.693-.057-6.855 0-.597.173-.882.346-1.052.663-.569 1.73-.967 2.681-.967.923 0 1.529.284 1.99.654.635.512.837 1.252.923 1.792.144 1.223.087 3.64.087 5.745 0 1.138-.087 1.423-.52 1.565-.201.085-.72.2-1.326.256-.202.199-.144 1.08 0 1.28.836 0 1.817-.086 3.259-.086 1.788 0 2.941.086 3.403.086.144-.17.201-.996.086-1.223ZM93 24.945c-1.529 0-2.48 1.166-2.48 2.986 0 1.849.835 3.982 3.2 3.982.404 0 1.154-.17 1.5-.569.548-.512.923-1.536.923-2.617 0-2.36-1.183-3.782-3.143-3.782Zm-.203 12.571c-.576 0-.98.17-1.24.313-1.21.768-1.759 1.508-1.759 2.39 0 .824.317 1.478 1.01 2.047.836.711 1.99 1.053 3.46 1.053 2.942 0 4.24-1.565 4.24-3.1 0-1.081-.549-1.793-1.673-2.19-.808-.342-2.278-.513-4.038-.513ZM93 44.911c-1.76 0-3.029-.37-4.124-1.194-1.067-.797-1.529-1.991-1.529-2.816 0-.227.058-.853.577-1.422.317-.341 1.01-.996 2.653-2.105.058-.028.086-.057.086-.114s-.057-.114-.115-.142c-1.355-.512-1.759-1.337-1.874-1.792v-.057c-.03-.17-.087-.34.173-.512.202-.142.49-.313.807-.511.49-.285 1.01-.598 1.327-.854.057-.057.057-.114.057-.17 0-.058-.057-.114-.115-.143-2.019-.654-3.028-2.133-3.028-4.352 0-1.45.663-2.759 1.846-3.583.807-.626 2.826-1.394 4.152-1.394h.087c1.355.028 2.105.313 3.172.683.577.199 1.125.284 1.875.284 1.124 0 1.614-.341 2.018-.74.029.057.087.2.116.57.028.37-.087.91-.376 1.308-.23.313-.749.54-1.268.54h-.145a6.518 6.518 0 0 1-.75-.114l-.115.057c-.028.057 0 .114.03.2l.028.056c.058.256.173 1.024.173 1.223 0 2.333-.951 3.356-1.96 4.124a6.693 6.693 0 0 1-3.375 1.28c-.029 0-.144 0-.403.029-.145 0-.347.028-.376.028h-.028c-.231.057-.808.342-.808.825 0 .427.26.939 1.5 1.024.26.029.519.029.807.057 1.644.114 3.692.256 4.643.569 1.327.483 2.163 1.65 2.163 3.043 0 2.105-1.529 4.068-4.066 5.29-1.24.541-2.48.825-3.835.825Zm16.437-19.824c-.606 0-1.154.142-1.557.426-1.125.683-1.702 2.048-1.702 4.04 0 3.725 1.904 6.342 4.614 6.342.808 0 1.442-.227 1.99-.682.836-.683 1.269-2.049 1.269-3.954 0-3.698-1.874-6.172-4.614-6.172Zm.519 12.173c-4.902 0-6.661-3.555-6.661-6.883 0-2.332.951-4.124 2.854-5.404 1.356-.825 2.971-1.28 4.413-1.28 3.748 0 6.373 2.645 6.373 6.457 0 2.588-1.038 4.636-3.028 5.887-.952.626-2.595 1.223-3.951 1.223Zm-51.39-12.173c-.605 0-1.153.142-1.557.426-1.124.683-1.701 2.048-1.701 4.04 0 3.725 1.903 6.342 4.614 6.342.808 0 1.442-.227 1.99-.682.836-.683 1.269-2.049 1.269-3.954 0-3.698-1.846-6.172-4.614-6.172Zm.52 12.173c-4.903 0-6.662-3.555-6.662-6.883 0-2.332.952-4.124 2.855-5.404 1.356-.825 2.97-1.28 4.412-1.28 3.75 0 6.374 2.645 6.374 6.457 0 2.588-1.039 4.636-3.028 5.887-.923.626-2.567 1.223-3.951 1.223Zm-32.962-.284c-.058-.085-.115-.341-.087-.654 0-.228.058-.37.087-.427.605-.085.923-.17 1.269-.256.577-.142.807-.455.836-1.166.087-1.707.087-4.95.058-7.196v-.057c0-.256 0-.569-.317-.796a6.545 6.545 0 0 0-1.73-.74c-.26-.085-.433-.228-.404-.398 0-.17.173-.37.548-.427.951-.085 3.431-.682 4.412-1.109.057.057.144.228.144.455l-.029.313c-.029.313-.058.683-.058 1.052 0 .114.116.2.231.2a.414.414 0 0 0 .173-.058c1.846-1.422 3.518-1.934 4.383-1.934 1.414 0 2.51.655 3.346 2.02.057.085.115.114.202.114.057 0 .144-.029.173-.086 1.701-1.28 3.403-2.048 4.527-2.048 2.682 0 4.268 1.963 4.268 5.29 0 .94 0 2.162-.029 3.272 0 .995-.028 1.905-.028 2.56 0 .142.201.597.519.682.403.2.951.285 1.672.398h.03c.057.2-.059.939-.174 1.081-.173 0-.433 0-.72-.028a43.13 43.13 0 0 0-2.192-.057c-1.788 0-2.711.028-3.605.085-.058-.227-.087-.91 0-1.08.519-.086.778-.171 1.096-.257.576-.17.72-.426.75-1.166 0-.54.115-5.148-.058-6.257-.173-1.138-1.039-2.475-2.942-2.475-.72 0-1.845.285-2.941 1.11a.502.502 0 0 0-.116.284v.028c.116.598.116 1.28.116 2.333v1.848c0 1.28-.03 2.475 0 3.385 0 .626.375.768.692.882.173.028.288.057.432.085.26.057.52.114.923.2.058.113.058.483-.029.796-.029.17-.086.256-.115.284-.98-.028-1.99-.057-3.46-.057-.433 0-1.183.029-1.818.029-.519 0-1.009.028-1.297.028-.029-.057-.087-.256-.087-.569 0-.256.058-.455.116-.512.144-.028.26-.056.404-.056.345-.057.634-.114.922-.171.49-.142.663-.398.692-1.024.087-1.422.173-5.49-.029-6.514-.345-1.65-1.297-2.474-2.826-2.474-.893 0-2.018.427-2.941 1.11-.144.113-.26.397-.26.653v1.679c0 2.047 0 4.607.03 5.717.028.34.143.74.807.881.144.029.375.086.663.114l.52.085c.057.171.028.854-.087 1.081-.289 0-.635-.028-1.039-.028a47.786 47.786 0 0 0-2.249-.057c-1.01 0-1.73.028-2.307.057-.404-.057-.721-.057-1.067-.057Z" fill="#442D22"/><path fill-rule="evenodd" clip-rule="evenodd" d="m10.954 43.802-1.182-.398s.144-5.945-2.019-6.371c-1.442-1.65.231-69.97 5.422-.228 0 0-1.788.882-2.105 2.39-.347 1.479-.116 4.607-.116 4.607Z" fill="#fff"/><path fill-rule="evenodd" clip-rule="evenodd" d="m10.954 43.802-1.182-.398s.144-5.945-2.019-6.371c-1.442-1.65.231-69.97 5.422-.228 0 0-1.788.882-2.105 2.39-.347 1.479-.116 4.607-.116 4.607Z" fill="#A6A385"/><path fill-rule="evenodd" clip-rule="evenodd" d="M11.589 38.057s10.353-6.713 7.93-20.679C17.183 7.224 11.675 3.897 11.07 2.617 10.407 1.707 9.773.114 9.773.114l.433 28.244c0 .028-.895 8.646 1.384 9.699Z" fill="#fff"/><path fill-rule="evenodd" clip-rule="evenodd" d="M11.589 38.057s10.353-6.713 7.93-20.679C17.183 7.224 11.675 3.897 11.07 2.617 10.407 1.707 9.773.114 9.773.114l.433 28.244c0 .028-.895 8.646 1.384 9.699Z" fill="#499D4A"/><path fill-rule="evenodd" clip-rule="evenodd" d="M9.166 38.426S-.552 31.884.025 20.366C.572 8.845 7.436 3.185 8.762 2.161c.866-.91.895-1.252.952-2.162.606 1.28.49 19.142.577 21.247.26 8.106-.462 15.644-1.125 17.18Z" fill="#fff"/><path fill-rule="evenodd" clip-rule="evenodd" d="M9.166 38.426S-.552 31.884.025 20.366C.572 8.845 7.436 3.185 8.762 2.161c.866-.91.895-1.252.952-2.162.606 1.28.49 19.142.577 21.247.26 8.106-.462 15.644-1.125 17.18Z" fill="#58AA50"/></svg>
